X: 15084
T: Get Her Goin'
R: reel
M: 4/4
K: Bminor
|:B2 f2 f2 ed|ef ~f2 edef|B2 f2 f2 ed|af ~f2 edef|
B2 f2 f2 ed|ef ~f2 edef|G2 Bd feea-|agfe gfed:|
|:fBB fBB fB|gBB aBB gB|fBB fBB fB|eAA aAA eA|
fBB fBB fB|gBB aBB gB|G2 Bd feea-|agfe gfed:|

